X:1
T:我的中国心
T:我的中国心
L:1/8
M:4/4
K:Eb
V:1 treble nm="Piano" snm="Pno."
V:1
 G4 c4 | e2 dc G2 E2 | c8- | c8 | G4 g4 | f2 gf e2 d2 | G8- | G8 | c3 G FGED | C6 z2 | %10
 G c2 B GFEF | G6 GB | c3 d cBGF | E (E2 F) G4 | F3 G (DC) B,2 | C6 z2 | z8 | z8 | z8 | z8 | z8 | %21
 z8 | z8 | z6 z E | G3 E E2 z E | c3 G G2 cB | G2 F2 E2 (FE/)F/ | G6 z E | c3 G G3 E | B3 B e4- | %30
 e2 dc B3 F | G6 z2 | z8 | z8 | z8 | z8 | z8 | z8 | z8 | z8 | z8 | z8 | z8 | z8 | z8 | z8 | z8 | %47
 z8 | z6 z E | G3 E E2 z E | c3 G G2 cB | G2 F2 E2 (FE/)F/ | G6 z E | c3 G G3 E | B3 B e4- | %55
 e2 dc B3 F | G6 z2 | z8 | z8 | z8 | z8 | z8 | z8 | z8 | z8 | z8 | z8 | z8 | z8 | z8 | z8 | z8 | %72
 z8 | z8 |] %74

